public/img/close-menu.svg

<svg width="32" height="32" viewBox="0 0 32 32" fill="none" xmlns="http://www.w3.org/2000/svg">
<path d="M4 4C2.875 4 2 4.9375 2 6V26C2 27.125 2.875 28 4 28H28C29.0625 28 30 27.125 30 26V6C30 4.9375 29.0625 4 28 4H4ZM0 6C0 3.8125 1.75 2 4 2H28C30.1875 2 32 3.8125 32 6V26C32 28.25 30.1875 30 28 30H4C1.75 30 0 28.25 0 26V6ZM11.25 11.3125C11.625 10.9375 12.3125 10.9375 12.6875 11.3125L16 14.625L19.25 11.3125C19.625 10.9375 20.3125 10.9375 20.6875 11.3125C21.0625 11.6875 21.0625 12.375 20.6875 12.75L17.375 16L20.6875 19.3125C21.0625 19.6875 21.0625 20.375 20.6875 20.75C20.3125 21.125 19.625 21.125 19.25 20.75L16 17.4375L12.6875 20.75C12.3125 21.125 11.625 21.125 11.25 20.75C10.875 20.375 10.875 19.6875 11.25 19.3125L14.5625 16L11.25 12.75C10.875 12.375 10.875 11.6875 11.25 11.3125Z" fill="#1A75BB"/>
</svg>

<svg xmlns="http://www.w3.org/2000/svg" width="32" height="32" fill="none"><path fill="#1A75BB" d="M4 4c-1.125 0-2 .938-2 2v20c0 1.125.875 2 2 2h24c1.063 0 2-.875 2-2V6c0-1.062-.937-2-2-2zM0 6c0-2.187 1.75-4 4-4h24c2.188 0 4 1.813 4 4v20c0 2.25-1.812 4-4 4H4c-2.25 0-4-1.75-4-4zm11.25 5.313c.375-.376 1.063-.376 1.438 0L16 14.625l3.25-3.312c.375-.376 1.063-.376 1.438 0 .375.374.375 1.062 0 1.437L17.375 16l3.313 3.313c.375.375.375 1.062 0 1.437s-1.063.375-1.438 0L16 17.438l-3.312 3.312c-.376.375-1.063.375-1.438 0s-.375-1.062 0-1.437L14.563 16l-3.313-3.25c-.375-.375-.375-1.062 0-1.437"/></svg>
